svgs/light/chalkboard-user.svg

<svg xmlns="http://www.w3.org/2000/svg" viewBox="0 0 640 512"><!-- Font Awesome Pro 6.0.0-alpha2 by @fontawesome - https://fontawesome.com License - https://fontawesome.com/license (Commercial License) --><path d="M160 320C213.02 320 256 277.018 256 224C256 170.98 213.02 128 160 128C106.982 128 64 170.98 64 224C64 277.018 106.982 320 160 320ZM160 160C195.289 160 224 188.711 224 224S195.289 288 160 288S96 259.289 96 224S124.711 160 160 160ZM192 352H128C57.307 352 0 409.307 0 480C0 497.672 14.326 512 32 512H288C305.674 512 320 497.672 320 480C320 409.307 262.693 352 192 352ZM32 480C32 427.064 75.066 384 128 384H192C244.936 384 288 427.064 288 480H32ZM592 0H208C181.531 0 160 21.531 160 48V80C160 88.844 167.156 96 176 96S192 88.844 192 80V48C192 39.188 199.172 32 208 32H592C600.828 32 608 39.188 608 48V368C608 376.812 600.828 384 592 384H576V336C576 309.531 554.469 288 528 288H432C405.531 288 384 309.531 384 336V384H352C343.156 384 336 391.156 336 400S343.156 416 352 416H592C618.469 416 640 394.469 640 368V48C640 21.531 618.469 0 592 0ZM544 384H416V336C416 327.188 423.172 320 432 320H528C536.828 320 544 327.188 544 336V384Z"/></svg>

<svg xmlns="http://www.w3.org/2000/svg" viewBox="0 0 640 512"><!--! Font Awesome Pro 6.3.0 by @fontawesome - https://fontawesome.com License - https://fontawesome.com/license (Commercial License) Copyright 2023 Fonticons, Inc. --><path d="M160 320c53.02 0 96-42.98 96-96c0-53.02-42.98-96-96-96C106.1 128 64 170.1 64 224C64 277 106.1 320 160 320zM160 160c35.29 0 64 28.71 64 64S195.3 288 160 288S96 259.3 96 224S124.7 160 160 160zM192 352H128c-70.69 0-128 57.31-128 128c0 17.67 14.33 32 32 32h256c17.67 0 32-14.33 32-32C320 409.3 262.7 352 192 352zM32 480c0-52.94 43.07-96 96-96h64c52.94 0 96 43.06 96 96H32zM592 0h-384C181.5 0 160 21.53 160 48v32C160 88.84 167.2 96 176 96S192 88.84 192 80v-32C192 39.19 199.2 32 208 32h384C600.8 32 608 39.19 608 48v320c0 8.812-7.172 16-16 16H576v-48C576 309.5 554.5 288 528 288h-96C405.5 288 384 309.5 384 336V384h-32c-8.844 0-16 7.156-16 16S343.2 416 352 416h240C618.5 416 640 394.5 640 368v-320C640 21.53 618.5 0 592 0zM544 384h-128v-48c0-8.812 7.172-16 16-16h96c8.828 0 16 7.188 16 16V384z"/></svg>
